cssgg/arrows-exchange.svg

<svg
  width="24"
  height="24"
  viewBox="0 0 24 24"
  fill="none"
  xmlns="http://www.w3.org/2000/svg"
>
  <path
    d="M4.99255 12.9841C4.44027 12.9841 3.99255 13.4318 3.99255 13.9841C3.99255 14.3415 4.18004 14.6551 4.46202 14.8319L7.14964 17.5195C7.54016 17.9101 8.17333 17.9101 8.56385 17.5195C8.95438 17.129 8.95438 16.4958 8.56385 16.1053L7.44263 14.9841H14.9926C15.5448 14.9841 15.9926 14.5364 15.9926 13.9841C15.9926 13.4318 15.5448 12.9841 14.9926 12.9841L5.042 12.9841C5.03288 12.984 5.02376 12.984 5.01464 12.9841H4.99255Z"
    fill="currentColor"
  />
  <path
    d="M19.0074 11.0159C19.5597 11.0159 20.0074 10.5682 20.0074 10.0159C20.0074 9.6585 19.82 9.3449 19.538 9.16807L16.8504 6.48045C16.4598 6.08993 15.8267 6.08993 15.4361 6.48045C15.0456 6.87098 15.0456 7.50414 15.4361 7.89467L16.5574 9.01589L9.00745 9.01589C8.45516 9.01589 8.00745 9.46361 8.00745 10.0159C8.00745 10.5682 8.45516 11.0159 9.00745 11.0159L18.958 11.0159C18.9671 11.016 18.9762 11.016 18.9854 11.0159H19.0074Z"
    fill="currentColor"
  />
</svg>

<svg viewBox="0 0 24 24" xmlns="http://www.w3.org/2000/svg"><g><path d="M4.99 12.98c-.56 0-1 .44-1 1 0 .35.18.67.46.84l2.68 2.68c.39.39 1.02.39 1.41 0 .39-.4.39-1.03 0-1.42l-1.13-1.13h7.54c.55 0 1-.45 1-1 0-.56-.45-1-1-1H4.99c-.01-.01-.02-.01-.03 0h-.03Z"/><path d="M19 11.01c.55 0 1-.45 1-1 0-.36-.19-.68-.47-.85l-2.69-2.69c-.4-.4-1.03-.4-1.42 0 -.4.39-.4 1.02 0 1.41L16.54 9H8.99c-.56 0-1 .44-1 1 0 .55.44 1 1 1h9.95s.01 0 .02 0h.02Z"/></g></svg>
